!!!OTL: Chang beishan
!!!ARE: Asia, China,ÿNingxia Xiji
!! I, 164
!!!SCT: C1833
!!!YEM: Copyright 1995, estate of Helmut Schaffrath.
**kern
*ICvox
*Ivox
*M2/4
*k[b-e-a-]
*E-:
{8ff
8ff
8ff
16ee-
16cc
=1
8ff
16ee-
16cc
16b-
16a-
8f
=2
8ee-
8cc
8b-
16a-
16f
=3
8a-
16cc
16b-
16b-
16a-
8f
=4
2f}
=5
{2cc
=6
8ee-
8cc
16b-
16a-
8f
=7
8a-
16cc
16b-
16b-
16a-
8f
=8
2f}
==
!!!AGN: Xiaodiao. Laodong
!! Han, Hui
!!!ONB: ESAC (Essen Associative Code) Database: SENGANSU
!!!AMT: simple duple
!!!AIN: vox
!!!EED: Helmut Schaffrath
!!!EEV: 1.0
*-
